X: 8887
T: Curious Beetle, The
R: reel
M: 4/4
K: Amajor
|:A2AA BAGA|EFAB c2cB|A2AA BAGA|EFAg afec|
A2AA BAGA|EFAB c2cB|A2AA BAGA|EFAB BAFA|
E4 BAGA|EFAB c2cB|A2AA BAGA|EFAg afec|
A2AA BAGA|EFAB c2cB|A2AA BAGA|EFAB BAce||
|:afec BAF2-|FAdf eABA|EAeA fAeA|EFAB BAce|
afec BAF2-|FAdf eABA|EAeA fAeA|1 EFAB BAce:|2 EFAB BAFA||

